packages/plus/src/components/Navigation/__stories__/assets/logo.svg

<svg width="183" height="26" viewBox="0 0 183 26" fill="none" xmlns="http://www.w3.org/2000/svg">
    <path d="M6.48209 19.6753C5.29056 19.667 4.11947 19.3667 3.07247 18.8011C1.98468 18.2392 1.04225 17.4349 0.31876 16.451C0.223355 16.3331 0.179769 16.1819 0.197859 16.0317C0.215949 15.8814 0.294188 15.7448 0.414884 15.6526L1.73237 14.4888C1.83894 14.3924 1.97849 14.3401 2.12252 14.3426H2.21865C2.389 14.369 2.54008 14.4661 2.63425 14.6097C3.07881 15.324 3.68849 15.9225 4.41257 16.3554C5.10452 16.7675 5.89601 16.9851 6.70261 16.9851C7.57905 16.9851 8.23779 16.8136 8.65056 16.451C9.05614 16.1102 9.27361 15.5973 9.2358 15.0707C9.27948 14.5047 9.04319 13.953 8.6025 13.592C8.08983 13.2041 7.26146 12.8405 6.11738 12.5013C2.72472 11.6777 1.02839 10.0781 1.02839 7.72239C1.02839 6.26903 1.51467 5.13053 2.49006 4.33216C3.46545 3.5338 4.73204 3.16835 6.34073 3.16835C8.54633 3.10348 10.6493 4.09464 11.9952 5.83331C12.1944 6.08375 12.1621 6.44533 11.9216 6.65697L10.6409 7.7252C10.5355 7.82336 10.3952 7.87593 10.2508 7.87138H10.1773C10.0104 7.85559 9.85925 7.76705 9.76448 7.62962C9.37249 7.06211 8.85634 6.59022 8.25475 6.24936C7.65797 5.95083 6.99739 5.80036 6.32942 5.81082C5.66595 5.78463 5.01047 5.96229 4.45215 6.31964C4.04418 6.61041 3.80712 7.08288 3.81885 7.58183C3.79293 8.08546 4.01037 8.57113 4.40409 8.88901C4.86775 9.27695 5.69612 9.5918 6.86376 9.88134C8.44983 10.3199 9.69098 10.899 10.5929 11.6524C11.5428 12.476 12.0319 13.6202 12.0319 15.0679C12.0364 15.9223 11.7812 16.7581 11.2997 17.4658C10.8094 18.1841 10.1227 18.7479 9.32061 19.0906C8.4325 19.5007 7.46097 19.7009 6.48209 19.6753Z" fill="#151A2D"/>
    <path d="M19.0971 19.7231C18.068 19.7484 17.0533 19.479 16.1738 18.9473C15.318 18.4383 14.6249 17.6984 14.1749 16.8136C13.6864 15.8707 13.4434 14.8211 13.4681 13.7607C13.4407 12.7081 13.684 11.666 14.1749 10.7331C14.6264 9.85001 15.3192 9.11145 16.1738 8.60228C17.0534 8.09266 18.0536 7.82489 19.0717 7.8264C19.9238 7.80761 20.7653 8.01632 21.5087 8.4308C22.2235 8.85148 22.8518 9.40278 23.3606 10.0556C23.5543 10.3118 23.512 10.674 23.2644 10.8793L22.1929 11.7226C22.0857 11.7996 21.9576 11.8427 21.8254 11.8463H21.7293C21.5702 11.8236 21.4283 11.7347 21.3391 11.6018C20.8638 10.8219 20.0142 10.3447 19.0971 10.3424C18.5658 10.3438 18.0446 10.4865 17.5874 10.7556C17.1284 11.0403 16.7636 11.4528 16.5385 11.9419C16.0267 13.1001 16.0267 14.4185 16.5385 15.5767C16.7628 16.073 17.1272 16.4939 17.5874 16.7883C18.0342 17.0807 18.5629 17.2244 19.0971 17.1987C19.5848 17.2272 20.0716 17.1303 20.5107 16.9176C20.9094 16.7015 21.2581 16.4046 21.5342 16.0462C21.7301 15.8055 22.0783 15.7531 22.3371 15.9253L23.485 16.7236C23.6141 16.8137 23.7019 16.9512 23.729 17.1057C23.756 17.2603 23.7201 17.4191 23.6292 17.5473C23.63 17.5537 23.6279 17.5602 23.6236 17.5651C23.6193 17.5699 23.6131 17.5727 23.6065 17.5726C23.0774 18.2239 22.4117 18.7526 21.6558 19.1215C20.8626 19.5201 19.9858 19.7262 19.0971 19.7231Z" fill="#151A2D"/>
    <path fill-rule="evenodd" clip-rule="evenodd" d="M25.1417 16.8136C26.0784 18.6363 27.9804 19.7663 30.0384 19.7231C30.8379 19.7341 31.6269 19.5425 32.3313 19.1665C32.5518 19.0344 32.7695 18.8995 32.9901 18.7533V18.7786C32.9947 19.0976 33.2544 19.3547 33.5753 19.3577H35.037C35.3578 19.3547 35.6176 19.0976 35.6222 18.7786V8.74564C35.6176 8.42616 35.3583 8.16827 35.037 8.16374H33.5725C33.2512 8.16827 32.9918 8.42616 32.9872 8.74564V8.79624C32.7756 8.62748 32.5474 8.48054 32.3059 8.35771C31.5864 8.00319 30.7934 7.82123 29.9904 7.8264C27.9465 7.78755 26.0613 8.9177 25.1417 10.7331C24.1888 12.6492 24.1888 14.8975 25.1417 16.8136ZM28.5033 10.7584C28.9508 10.4861 29.4657 10.3431 29.9904 10.3452C30.5361 10.3213 31.0748 10.4742 31.5256 10.7809C31.9784 11.0732 32.3405 11.4849 32.5716 11.97C33.0851 13.1269 33.0851 14.4452 32.5716 15.602C32.3502 16.0992 31.9863 16.5206 31.5256 16.8136C31.0589 17.0823 30.5296 17.2248 29.9904 17.2268C29.4628 17.2528 28.9409 17.1078 28.5033 16.8136C28.0423 16.52 27.6777 16.0989 27.4544 15.602C27.1821 15.0268 27.0495 14.3962 27.067 13.7607C27.0599 13.1344 27.1922 12.5142 27.4544 11.9447C27.6956 11.4662 28.0568 11.0576 28.5033 10.7584Z" fill="#151A2D"/>
    <path d="M38.1299 3.25269H39.5916C39.9129 3.25722 40.1723 3.51511 40.1768 3.83459V18.7842C40.1723 19.1037 39.9129 19.3616 39.5916 19.3661H38.1299C37.8086 19.3616 37.5493 19.1037 37.5447 18.7842V3.83459C37.5391 3.67862 37.599 3.52736 37.71 3.417C37.8209 3.30665 37.9731 3.24713 38.1299 3.25269Z" fill="#151A2D"/>
    <path d="M63.1734 18.9726C63.2438 19.2229 63.4776 19.3926 63.7388 19.383L65.2458 19.3802C65.5033 19.3784 65.731 19.2132 65.8112 18.9697L69.1247 8.93118C69.2198 8.63762 69.0704 8.32091 68.7826 8.20591C68.7039 8.17945 68.6222 8.16246 68.5395 8.15531H67.1485C66.8904 8.15835 66.663 8.32455 66.583 8.56854L64.5842 14.753L62.6051 8.56854C62.5358 8.3171 62.3017 8.14603 62.0397 8.15531H60.6006C60.3426 8.15835 60.1151 8.32455 60.0352 8.56854L57.9826 14.8289L55.9584 8.57698C55.889 8.32553 55.6549 8.15446 55.3929 8.16374H53.8464C53.7368 8.16486 53.6287 8.1898 53.5298 8.23683C53.2779 8.37309 53.1592 8.66823 53.247 8.93961L56.586 18.9726C56.6564 19.2229 56.8902 19.3926 57.1514 19.383H58.6131C58.868 19.3954 59.0997 19.2364 59.1785 18.995L61.2481 12.9876L63.1734 18.9726Z" fill="#151A2D"/>
    <path fill-rule="evenodd" clip-rule="evenodd" d="M75.0703 19.7231C73.0133 19.7623 71.1134 18.6334 70.1736 16.8136C69.2238 14.8968 69.2238 12.6499 70.1736 10.7331C71.0976 8.90981 72.9949 7.7784 75.0477 7.8264C75.8453 7.82893 76.6306 8.02174 77.3378 8.38863C77.5789 8.51086 77.8072 8.65683 78.0191 8.82436V8.77657C78.0217 8.452 78.2783 8.18573 78.6043 8.16936H80.0915C80.4128 8.17389 80.6721 8.43179 80.6767 8.75127V18.7842C80.6721 19.1032 80.4123 19.3603 80.0915 19.3633H78.6298C78.3089 19.3603 78.0491 19.1032 78.0445 18.7842V18.7589C77.8335 18.9096 77.6135 19.0476 77.3858 19.1721C76.6716 19.5432 75.8761 19.7325 75.0703 19.7231ZM75.0477 10.3452C74.523 10.3431 74.0081 10.4861 73.5606 10.7584C73.1136 11.0569 72.7521 11.4657 72.5117 11.9447C72.2368 12.5101 72.1029 13.133 72.1215 13.7607C72.1049 14.3964 72.2386 15.027 72.5117 15.602C72.7351 16.0989 73.0996 16.52 73.5606 16.8136C73.9982 17.1078 74.5201 17.2528 75.0477 17.2268C75.5794 17.228 76.1013 17.0852 76.5574 16.8136C77.0184 16.52 77.383 16.0989 77.6063 15.602C78.1198 14.4452 78.1198 13.1269 77.6063 11.97C77.3813 11.4801 77.0166 11.0667 76.5574 10.7809C76.116 10.4746 75.5854 10.3215 75.0477 10.3452Z" fill="#151A2D"/>
    <path fill-rule="evenodd" clip-rule="evenodd" d="M50.1654 15.9674C50.3809 15.7036 50.7652 15.6508 51.0446 15.8466L52.0427 16.569C52.0427 16.583 52.054 16.5943 52.0681 16.5943C52.207 16.7001 52.2978 16.8564 52.3206 17.0289C52.3434 17.2013 52.2963 17.3757 52.1897 17.5136C51.7055 18.1355 51.1008 18.6545 50.4114 19.04C49.4715 19.5266 48.4229 19.7683 47.3636 19.7428C46.3377 19.7454 45.3293 19.4787 44.4403 18.9697C43.591 18.4528 42.8999 17.715 42.4414 16.8361C41.9546 15.8926 41.7117 14.8434 41.7346 13.7832C41.7253 12.7325 41.9675 11.6947 42.4414 10.7556C42.8841 9.87205 43.5705 9.13201 44.4205 8.62195C45.2908 8.10983 46.2844 7.84171 47.2958 7.84608C49.2709 7.8301 51.0922 8.90391 52.0257 10.6347C52.4998 11.504 52.7422 12.4795 52.7297 13.4684C52.7357 13.6944 52.7281 13.9207 52.7071 14.1458C52.682 14.4484 52.4272 14.681 52.1218 14.6799H44.4883C44.6099 15.2964 44.8871 15.872 45.2941 16.3526C45.8134 16.9428 46.576 17.2639 47.3636 17.224C48.0062 17.2449 48.6435 17.1026 49.2154 16.8108C49.582 16.5907 49.9041 16.3047 50.1654 15.9674ZM47.341 10.3227C46.6416 10.2974 45.9625 10.5598 45.4637 11.048C45.0991 11.3915 44.8202 11.8151 44.6495 12.2849H49.9477C49.8341 11.7812 49.5804 11.3195 49.2154 10.9524C48.7772 10.5138 48.1439 10.3227 47.341 10.3227Z" fill="#151A2D"/>
    <path d="M92.5906 8.4308C92.4728 8.28224 92.2945 8.19362 92.1043 8.18904H90.7161C90.4649 8.1891 90.2399 8.34349 90.1507 8.57698L87.3008 15.8859L84.5952 8.54324C84.4956 8.3217 84.2738 8.1795 84.0298 8.18058H82.4946C82.2967 8.17886 82.1122 8.28015 82.0083 8.44766C81.8939 8.61342 81.8746 8.82649 81.9574 9.00989L85.9268 19.4308C85.8617 19.8158 85.6526 20.1622 85.3416 20.4006C84.9771 20.6422 84.2711 20.6676 83.8808 20.6817C83.5422 20.6981 83.2747 20.9744 83.2721 21.3114V22.3037C83.2705 22.4712 83.3368 22.6323 83.4559 22.7507C83.575 22.8691 83.7369 22.935 83.9054 22.9334C83.9625 22.9334 84.0231 22.9339 84.0867 22.9343C84.6994 22.9386 85.5874 22.9448 86.2944 22.5933C87.7147 21.8474 88.0513 20.9432 88.4309 19.9234C88.4805 19.7902 88.5309 19.6549 88.5844 19.5179L92.6528 8.95367C92.7031 8.77812 92.6807 8.58982 92.5906 8.4308Z" fill="#151A2D"/>
    <path d="M98.5216 3.67391C98.5216 1.64487 100.166 0 102.196 0H179.065C181.094 0 182.739 1.64487 182.739 3.67391V22.3261C182.739 24.3551 181.094 26 179.065 26H102.196C100.166 26 98.5216 24.3551 98.5216 22.3261V3.67391Z" fill="#151A2D"/>
    <path d="M110.767 19.6825C109.559 19.6825 108.481 19.4093 107.534 18.8629C106.587 18.3164 105.837 17.5241 105.285 16.4858C104.738 15.4475 104.465 14.1937 104.465 12.7244C104.465 11.249 104.741 9.99215 105.294 8.95389C105.846 7.90956 106.599 7.11417 107.552 6.56772C108.506 6.02127 109.577 5.74805 110.767 5.74805C111.793 5.74805 112.722 5.9393 113.554 6.32182C114.386 6.69826 115.069 7.24775 115.603 7.97028C116.138 8.68674 116.472 9.55195 116.605 10.5659H113.791C113.663 9.83125 113.329 9.25747 112.789 8.8446C112.255 8.42565 111.599 8.21618 110.822 8.21618C109.765 8.21618 108.912 8.6078 108.263 9.39105C107.613 10.1743 107.288 11.2854 107.288 12.7244C107.288 14.1937 107.613 15.3109 108.263 16.076C108.918 16.8349 109.768 17.2144 110.813 17.2144C111.584 17.2144 112.24 17.008 112.78 16.5951C113.326 16.1761 113.666 15.5963 113.8 14.8556H116.614C116.511 15.6995 116.214 16.4888 115.722 17.2235C115.23 17.9521 114.565 18.5441 113.727 18.9995C112.895 19.4548 111.909 19.6825 110.767 19.6825Z" fill="white"/>
    <path d="M122.949 19.7007C121.929 19.7007 121.045 19.4822 120.298 19.045C119.552 18.6018 118.975 17.9885 118.568 17.2053C118.167 16.416 117.967 15.4992 117.967 14.4548C117.967 13.4044 118.167 12.4846 118.568 11.6952C118.975 10.9059 119.552 10.2927 120.298 9.85553C121.045 9.4123 121.929 9.19068 122.949 9.19068C123.969 9.19068 124.852 9.4123 125.599 9.85553C126.346 10.2927 126.92 10.9059 127.32 11.6952C127.727 12.4846 127.931 13.4044 127.931 14.4548C127.931 15.4992 127.727 16.416 127.32 17.2053C126.92 17.9885 126.346 18.6018 125.599 19.045C124.852 19.4822 123.969 19.7007 122.949 19.7007ZM122.949 17.5514C123.677 17.5514 124.227 17.2569 124.597 16.6679C124.968 16.079 125.153 15.3383 125.153 14.4457C125.153 13.5471 124.968 12.8064 124.597 12.2235C124.227 11.6345 123.677 11.3401 122.949 11.3401C122.22 11.3401 121.671 11.6345 121.3 12.2235C120.936 12.8064 120.754 13.5471 120.754 14.4457C120.754 15.3383 120.936 16.079 121.3 16.6679C121.671 17.2569 122.22 17.5514 122.949 17.5514Z" fill="white"/>
    <path d="M132.38 13.6078V19.5004H129.647V9.31819H132.225L132.261 11.422C132.547 10.7116 132.95 10.1622 133.473 9.77356C133.995 9.38498 134.647 9.19068 135.431 9.19068C136.487 9.19068 137.334 9.5307 137.972 10.2107C138.609 10.8908 138.928 11.8288 138.928 13.0249V19.5004H136.196V13.4985C136.196 12.8671 136.032 12.3722 135.704 12.014C135.382 11.6558 134.933 11.4767 134.356 11.4767C133.773 11.4767 133.297 11.6649 132.926 12.0413C132.562 12.4117 132.38 12.9339 132.38 13.6078Z" fill="white"/>
    <path d="M145.126 19.7007C143.899 19.7007 142.885 19.4397 142.084 18.9175C141.289 18.3953 140.803 17.6607 140.627 16.7135L143.168 16.2763C143.429 17.2235 144.109 17.6971 145.208 17.6971C145.73 17.6971 146.14 17.5999 146.437 17.4057C146.741 17.2053 146.893 16.9533 146.893 16.6497C146.893 16.1336 146.456 15.7845 145.581 15.6024L143.823 15.2381C141.868 14.8373 140.891 13.875 140.891 12.351C140.891 11.3735 141.282 10.6023 142.066 10.0377C142.849 9.47302 143.884 9.19068 145.171 9.19068C146.38 9.19068 147.342 9.43659 148.058 9.92839C148.775 10.4202 149.227 11.079 149.415 11.9047L146.993 12.3328C146.884 11.9867 146.683 11.7044 146.392 11.4858C146.1 11.2611 145.706 11.1488 145.208 11.1488C144.759 11.1488 144.382 11.2459 144.078 11.4402C143.775 11.6285 143.623 11.8744 143.623 12.1779C143.623 12.433 143.72 12.6515 143.915 12.8337C144.115 13.0098 144.455 13.1464 144.935 13.2435L146.765 13.6078C148.708 14.0025 149.68 14.9193 149.68 16.3583C149.68 17.0262 149.485 17.6121 149.097 18.116C148.708 18.6139 148.171 19.0025 147.485 19.2818C146.799 19.5611 146.012 19.7007 145.126 19.7007Z" fill="white"/>
    <path d="M155.905 19.7007C154.885 19.7007 154.001 19.4822 153.254 19.045C152.508 18.6018 151.931 17.9885 151.524 17.2053C151.123 16.416 150.923 15.4992 150.923 14.4548C150.923 13.4044 151.123 12.4846 151.524 11.6952C151.931 10.9059 152.508 10.2927 153.254 9.85553C154.001 9.4123 154.885 9.19068 155.905 9.19068C156.925 9.19068 157.808 9.4123 158.555 9.85553C159.302 10.2927 159.876 10.9059 160.276 11.6952C160.683 12.4846 160.887 13.4044 160.887 14.4548C160.887 15.4992 160.683 16.416 160.276 17.2053C159.876 17.9885 159.302 18.6018 158.555 19.045C157.808 19.4822 156.925 19.7007 155.905 19.7007ZM155.905 17.5514C156.633 17.5514 157.183 17.2569 157.553 16.6679C157.924 16.079 158.109 15.3383 158.109 14.4457C158.109 13.5471 157.924 12.8064 157.553 12.2235C157.183 11.6345 156.633 11.3401 155.905 11.3401C155.176 11.3401 154.627 11.6345 154.256 12.2235C153.892 12.8064 153.71 13.5471 153.71 14.4457C153.71 15.3383 153.892 16.079 154.256 16.6679C154.627 17.2569 155.176 17.5514 155.905 17.5514Z" fill="white"/>
    <path d="M165.336 5.9302V19.5004H162.604V5.9302H165.336Z" fill="white"/>
    <path d="M172.08 19.7007C171.042 19.7007 170.146 19.4882 169.393 19.0632C168.64 18.6382 168.061 18.0341 167.654 17.2508C167.253 16.4676 167.053 15.5386 167.053 14.4639C167.053 13.4135 167.253 12.4937 167.654 11.7044C168.061 10.915 168.628 10.2988 169.357 9.85553C170.092 9.4123 170.954 9.19068 171.943 9.19068C172.83 9.19068 173.634 9.37891 174.357 9.75535C175.079 10.1318 175.653 10.7025 176.078 11.4676C176.509 12.2326 176.725 13.195 176.725 14.3546V15.1197H169.758C169.788 15.9515 170.019 16.5799 170.45 17.0049C170.881 17.4299 171.439 17.6425 172.126 17.6425C172.605 17.6425 173.015 17.5423 173.355 17.3419C173.701 17.1355 173.947 16.8349 174.093 16.4403L176.57 16.9047C176.321 17.7487 175.805 18.4257 175.022 18.9357C174.245 19.4457 173.264 19.7007 172.08 19.7007ZM169.776 13.4075H174.093C174.026 12.7456 173.814 12.2204 173.455 11.8319C173.097 11.4433 172.602 11.249 171.971 11.249C171.315 11.249 170.799 11.4524 170.423 11.8592C170.046 12.2599 169.831 12.776 169.776 13.4075Z" fill="white"/>
</svg>

<svg xmlns="http://www.w3.org/2000/svg" width="183" height="26" fill="none" viewBox="0 0 183 26">
    <path fill="#151A2D" d="M6.482 19.675a7.3 7.3 0 0 1-3.41-.874 7.94 7.94 0 0 1-2.753-2.35.56.56 0 0 1 .096-.798l1.317-1.164a.57.57 0 0 1 .39-.146h.097c.17.026.321.123.415.267a5.3 5.3 0 0 0 1.779 1.745c.692.412 1.483.63 2.29.63.876 0 1.535-.171 1.948-.534.405-.34.623-.854.585-1.38a1.74 1.74 0 0 0-.634-1.479q-.768-.582-2.485-1.09c-3.392-.824-5.089-2.424-5.089-4.78 0-1.453.487-2.591 1.462-3.39s2.242-1.164 3.85-1.164a6.9 6.9 0 0 1 5.655 2.665.6.6 0 0 1-.073.824L10.64 7.725a.55.55 0 0 1-.39.146h-.074a.57.57 0 0 1-.413-.241 4.6 4.6 0 0 0-1.51-1.38 4.16 4.16 0 0 0-1.925-.44 3.25 3.25 0 0 0-1.877.51c-.408.29-.645.763-.633 1.262-.026.503.191.99.585 1.307.464.388 1.292.703 2.46.992 1.586.439 2.827 1.018 3.729 1.771.95.824 1.439 1.968 1.439 3.416.004.854-.25 1.69-.732 2.398a4.57 4.57 0 0 1-1.98 1.625c-.888.41-1.859.61-2.838.584m12.616.048a5.4 5.4 0 0 1-2.923-.776 5.26 5.26 0 0 1-2-2.133 6.3 6.3 0 0 1-.706-3.053 6.16 6.16 0 0 1 .707-3.028 5.3 5.3 0 0 1 1.999-2.13c.88-.51 1.88-.778 2.898-.777a4.8 4.8 0 0 1 2.437.605c.715.42 1.343.972 1.852 1.625a.6.6 0 0 1-.097.823l-1.071.844a.66.66 0 0 1-.368.123h-.096a.57.57 0 0 1-.39-.244 2.63 2.63 0 0 0-2.242-1.26 3 3 0 0 0-1.51.414 2.75 2.75 0 0 0-1.049 1.186 4.5 4.5 0 0 0 0 3.635c.225.496.59.917 1.05 1.211.446.293.975.436 1.51.41a2.86 2.86 0 0 0 1.413-.28 3.2 3.2 0 0 0 1.023-.872.604.604 0 0 1 .803-.12l1.148.798a.59.59 0 0 1 .144.823.022.022 0 0 1-.023.025 5.8 5.8 0 0 1-1.95 1.55 5.66 5.66 0 0 1-2.559.601"/>
    <path fill="#151A2D" fill-rule="evenodd" d="M25.142 16.814a5.38 5.38 0 0 0 4.896 2.91 4.7 4.7 0 0 0 2.293-.558q.329-.196.66-.413v.026a.59.59 0 0 0 .584.579h1.462a.59.59 0 0 0 .585-.58V8.747a.59.59 0 0 0-.585-.582h-1.465a.59.59 0 0 0-.585.582v.05a4 4 0 0 0-.681-.438 5.2 5.2 0 0 0-2.316-.532 5.32 5.32 0 0 0-4.848 2.907 6.82 6.82 0 0 0 0 6.08m3.361-6.056a2.84 2.84 0 0 1 1.487-.413 2.53 2.53 0 0 1 1.536.436 2.9 2.9 0 0 1 1.046 1.189 4.47 4.47 0 0 1 0 3.632 2.77 2.77 0 0 1-1.046 1.212 3.1 3.1 0 0 1-1.536.413 2.45 2.45 0 0 1-1.487-.413 2.8 2.8 0 0 1-1.049-1.212 4.04 4.04 0 0 1-.387-1.841 4.2 4.2 0 0 1 .387-1.816 3.1 3.1 0 0 1 1.05-1.187" clip-rule="evenodd"/>
    <path fill="#151A2D" d="M38.13 3.253h1.462c.32.004.58.262.585.582v14.95a.59.59 0 0 1-.585.581H38.13a.59.59 0 0 1-.585-.582V3.834a.56.56 0 0 1 .585-.581m25.043 15.72c.07.25.305.42.566.41l1.507-.003a.6.6 0 0 0 .565-.41l3.314-10.04a.587.587 0 0 0-.342-.725 1 1 0 0 0-.243-.05h-1.392a.6.6 0 0 0-.565.413l-1.999 6.184-1.979-6.184a.565.565 0 0 0-.565-.414H60.6a.6.6 0 0 0-.565.414l-2.052 6.26-2.025-6.252a.565.565 0 0 0-.565-.413h-1.547a.8.8 0 0 0-.316.073.59.59 0 0 0-.283.703l3.339 10.033c.07.25.304.42.565.41h1.462a.565.565 0 0 0 .566-.388l2.07-6.007z"/>
    <path fill="#151A2D" fill-rule="evenodd" d="M75.07 19.723a5.39 5.39 0 0 1-4.896-2.91 6.84 6.84 0 0 1 0-6.08 5.32 5.32 0 0 1 4.874-2.907 5 5 0 0 1 2.29.563c.24.122.47.268.681.435v-.047a.614.614 0 0 1 .585-.608h1.487a.593.593 0 0 1 .586.582v10.033a.59.59 0 0 1-.586.58H78.63a.59.59 0 0 1-.585-.58v-.025q-.317.226-.66.413a4.9 4.9 0 0 1-2.315.551m-.022-9.378a2.84 2.84 0 0 0-1.487.413 3.1 3.1 0 0 0-1.05 1.187 3.9 3.9 0 0 0-.39 1.816 4.05 4.05 0 0 0 .39 1.841c.224.497.589.918 1.05 1.212.437.294.96.439 1.487.413a2.94 2.94 0 0 0 1.51-.413 2.8 2.8 0 0 0 1.048-1.212 4.47 4.47 0 0 0 0-3.632 2.76 2.76 0 0 0-1.049-1.19 2.46 2.46 0 0 0-1.51-.435m-24.882 5.622a.653.653 0 0 1 .88-.12l.998.722c0 .014.011.025.025.025a.654.654 0 0 1 .122.92 5.9 5.9 0 0 1-1.779 1.526 6.3 6.3 0 0 1-3.047.703 5.85 5.85 0 0 1-2.924-.773 5.45 5.45 0 0 1-1.999-2.134 6.36 6.36 0 0 1-.706-3.053 6.6 6.6 0 0 1 .706-3.027 5.2 5.2 0 0 1 1.98-2.134 5.6 5.6 0 0 1 2.875-.776 5.32 5.32 0 0 1 4.73 2.789 5.77 5.77 0 0 1 .704 2.833q.009.34-.023.678a.584.584 0 0 1-.585.534h-7.634c.122.616.4 1.192.806 1.673.52.59 1.282.91 2.07.871.642.02 1.28-.121 1.851-.413.367-.22.69-.506.95-.844m-2.824-5.644a2.55 2.55 0 0 0-1.877.725 3.2 3.2 0 0 0-.814 1.237h5.298a2.75 2.75 0 0 0-.733-1.333c-.438-.438-1.071-.63-1.874-.63" clip-rule="evenodd"/>
    <path fill="#151A2D" d="M92.59 8.43a.64.64 0 0 0-.486-.241h-1.388a.605.605 0 0 0-.565.388l-2.85 7.309-2.706-7.343a.62.62 0 0 0-.565-.362h-1.535a.57.57 0 0 0-.487.267.57.57 0 0 0-.05.562l3.969 10.42a1.55 1.55 0 0 1-.585.97c-.365.242-1.07.268-1.461.282a.64.64 0 0 0-.609.63v.992a.62.62 0 0 0 .633.63h.182c.612.005 1.5.01 2.207-.34 1.42-.747 1.757-1.65 2.137-2.67q.074-.202.153-.406l4.069-10.564a.68.68 0 0 0-.062-.523m5.931-4.757A3.674 3.674 0 0 1 102.196 0h76.869a3.674 3.674 0 0 1 3.674 3.674v18.652A3.674 3.674 0 0 1 179.065 26h-76.869a3.674 3.674 0 0 1-3.674-3.674z"/>
    <path fill="#fff" d="M110.767 19.683q-1.812 0-3.233-.82-1.42-.82-2.249-2.377-.82-1.558-.82-3.762 0-2.213.829-3.77.828-1.566 2.258-2.386t3.215-.82q1.539 0 2.787.574a5.14 5.14 0 0 1 2.049 1.648q.802 1.075 1.002 2.596h-2.814q-.192-1.103-1.002-1.721-.801-.63-1.967-.629-1.585 0-2.559 1.175t-.975 3.333q0 2.205.975 3.352.982 1.138 2.55 1.138 1.157 0 1.967-.619.819-.629 1.02-1.74h2.814a5.4 5.4 0 0 1-.892 2.369q-.738 1.092-1.995 1.776-1.247.683-2.96.683m12.182.017q-1.53 0-2.651-.655a4.5 4.5 0 0 1-1.73-1.84q-.601-1.184-.601-2.75 0-1.575.601-2.76a4.45 4.45 0 0 1 1.73-1.84q1.12-.664 2.651-.664t2.65.665a4.4 4.4 0 0 1 1.721 1.84q.61 1.183.611 2.759 0 1.566-.611 2.75a4.45 4.45 0 0 1-1.721 1.84q-1.12.656-2.65.656m0-2.149q1.093 0 1.648-.883.556-.884.556-2.222 0-1.349-.556-2.222-.556-.885-1.648-.884-1.093 0-1.649.883-.546.874-.546 2.223 0 1.338.546 2.222.556.883 1.649.883m9.431-3.944V19.5h-2.733V9.318h2.578l.036 2.104q.428-1.065 1.212-1.648.782-.583 1.958-.583 1.584 0 2.541 1.02t.956 2.814V19.5h-2.732v-6q0-.948-.492-1.485-.483-.537-1.348-.537-.874 0-1.43.564-.546.556-.546 1.567m12.746 6.091q-1.84 0-3.042-.782-1.193-.784-1.457-2.204l2.541-.438q.392 1.422 2.04 1.421.783 0 1.229-.291.456-.3.456-.756 0-.774-1.312-1.048l-1.758-.364q-2.932-.6-2.932-2.887 0-1.467 1.175-2.313 1.174-.847 3.105-.847 1.813 0 2.887.737 1.075.738 1.357 1.977l-2.422.428a1.66 1.66 0 0 0-.601-.847q-.437-.337-1.184-.337-.674 0-1.13.291-.455.283-.455.738 0 .382.292.656.3.264 1.02.41l1.83.364q2.915.591 2.915 2.75a2.8 2.8 0 0 1-.583 1.758q-.583.747-1.612 1.166-1.03.42-2.359.419m10.779-.001q-1.53 0-2.651-.655a4.5 4.5 0 0 1-1.73-1.84q-.601-1.184-.601-2.75 0-1.575.601-2.76a4.45 4.45 0 0 1 1.73-1.84q1.12-.664 2.651-.664t2.65.665a4.4 4.4 0 0 1 1.721 1.84q.61 1.183.611 2.759 0 1.566-.611 2.75a4.45 4.45 0 0 1-1.721 1.84q-1.12.656-2.65.656m0-2.149q1.093 0 1.648-.883.556-.884.556-2.222 0-1.349-.556-2.222-.555-.885-1.648-.884-1.093 0-1.649.883-.546.874-.546 2.223 0 1.338.546 2.222.556.883 1.649.883m9.431-11.622V19.5h-2.732V5.93zm6.744 13.77q-1.557 0-2.687-.637a4.3 4.3 0 0 1-1.739-1.812q-.601-1.174-.601-2.787 0-1.575.601-2.76a4.56 4.56 0 0 1 1.703-1.848q1.103-.666 2.586-.665 1.33 0 2.414.564 1.083.565 1.721 1.713.647 1.147.647 2.887v.765h-6.967q.045 1.248.692 1.885t1.676.637q.719 0 1.229-.3.519-.31.738-.902l2.477.465q-.374 1.265-1.548 2.03-1.166.766-2.942.766m-2.304-6.292h4.317q-.1-.993-.638-1.576-.537-.583-1.484-.583-.984 0-1.548.61-.565.6-.647 1.549"/>
</svg>
